X:18964
T:Xiraldilla (CT 062)
R:Xiraldilla
C:Tradicional
S:Msica Tradicional Asturiana, (C) Tello & Tito. Asturies, 2001.
S:http://pagina.de/MusTradAst <telloytito@asturies.org>
N:Xiraldilla, transcrita en Uviu.
O:Uviu
A:Asturies
Z:Cancioneru de Torner 062
M:2/4
L:1/8
Q:1/4=160
W:Son ciento y doce,
W:las estrellas del cielo.
W:son ciento y doce;
W:con las dos de tu cara,
W:ciento y catorce.
W:
W:Sal a bailar, dama hermosa,
W:dama hermosa, sal a bailar,
W:que vales t ms pesetas
W:que de arenas tiene el mar.
W:Ai!.
W:
W:Paloma de mi vida,
W:paloma de mi corazn;
W:con los ojos de tu cara
W:me robas el corazn.
K:C
ABc
|d2 B2|dc/B/ AB|d c-c2-|cA Bc|d2 B2|dc/B/ AB|d c-c2-|cA Bc|d2 B z/ A/|
(3GGG AA|BB-(3BBc|(3ddd cB|A2 z B|(3ccc cc|cc-ce|(3ddd dc|B2 z A|
(3GGG AA|BB-(3BBc|(3ddd cB|A2 z B|(3ccc cc|cc-ce|(3ddd dc|B4-|B z3||
